X:1
T:Title
%%score { 1 | 2 }
L:1/8
Q:1/4=94
M:3/4
K:F
V:1 treble nm="Grand Piano"
V:2 bass 
V:1
 F2 G2 A2 | B3 A G2 | F2 E2 F2 | [EG]6 | A2 A2 A2 | A3 A E2 | [_A=B]2 [=A^c]2 [_AB]2 | A6 | %8
w: F.~Huxtable * *||||||||
 A2 A2 A2 | [DB]3 [DB] [DB]2 | [^CF]2 [CF]2 [CG]2 | A6 | A2 G2 A2 | [DFB]3 [CFA] [B,DG]2 | %14
w: ||||||
 [B,CG]2 [A,CF]2 [G,CE]2 |[M:7/4] [A,CF]6 z2 z2 z4 |[M:3/4] [B,DF]6 | [A,CF]6 |] %18
w: ||||
V:2
 [F,A,]2 [F,B,F]2 [F,CF]2 | [F,DF]3 [F,CF] [F,B,E]2 | [F,A,]2 [F,G,C]2 [F,A,C]2 | [C,C]6 | %4
 [F,CF]2 [F,CF]2 [F,CF]2 | [E,^C]3 [E,CE] [E,C]2 | [E,D]2 [E,E]2 [E,D]2 | [A,^C]6 | %8
 [F,C_E]2 [F,CE]2 [F,CE]2 | [B,,B,]3 [B,,F,] [B,,F,]2 | [B,,B,]2 [B,,B,]2 [B,,B,]2 | [F,A,C]6 | %12
 [F,CF]2 [F,B,F]2 [F,CF]2 | B,,3 B,, B,,2 | C,2 C,2 C,2 |[M:7/4] F,6 z2 z2 z4 |[M:3/4] B,,6 | %17
 F,6 |] %18

